X:56
T:Hag with the Money
Z: id:dc-jig-46
M:6/8
L:1/8
K:D Mixolydian
Adc ABG|AGE G3|Adc ABA|GEA GED|!
Adc ABG|AGE G3|A3 cde|dcA GED:|!
AB^c d^cd|fed e3|AB^c d^cd|eag ed^c|!
AB^c d^cd|fed efg|age cde|dcA GED:|!

